azure-patterns/svg-search-files.svg

<svg xmlns="http://www.w3.org/2000/svg" viewBox="0 0 34 34">
                                
                            
  <path d="M19.4235,23.3745 C19.244,22.6799 19.1437,21.967 19.1246,21.2498 L6.37488,21.2498 L6.37488,6.375 L27.6243,6.375 L27.6243,12.7498 C28.3429,12.7527 29.0577,12.8533 29.7493,13.0486 L29.7493,4.25 L25.4994,4.25 L25.4994,0 L0,0 L0,19.1248 L4.2655,19.1248 L4.2655,23.3745 L19.4235,23.3745 Z M4.2666,16.9995 L4.2666,4.24976 L23.3745,4.24976 L23.3745,2.12476 L2.12494,2.12476 L2.12494,16.9995 L4.2666,16.9995 Z M12.7497,19.1243 L12.7497,9.84424 L14.8914,9.84424 L14.8914,19.1243 L12.7497,19.1243 Z M16.9996,19.1245 L16.9996,11.8032 L19.1246,11.8032 L19.1246,19.1245 L16.9996,19.1245 Z M8.49976,13.314 L8.49976,19.1245 L10.6247,19.1245 L10.6247,13.314 L8.49976,13.314 Z M25.9644,25.1509 C27.0223,25.6157 28.2267,25.6157 29.2847,25.1509 C30.2975,24.7134 31.1052,23.9058 31.5425,22.8928 C31.7741,22.3762 31.8929,21.8159 31.891,21.2495 C31.8918,20.678 31.7731,20.1125 31.5425,19.5896 C31.1085,18.5688 30.2922,17.7583 29.2682,17.3318 C28.7535,17.1047 28.1957,16.9915 27.6331,16.9998 C27.06,16.9937 26.4918,17.1067 25.9646,17.3318 C24.9551,17.7766 24.1535,18.5901 23.7235,19.606 C23.2589,20.6523 23.2589,21.8464 23.7235,22.8926 C24.1509,23.9065 24.954,24.7156 25.9644,25.1509 Z M27.6575,14.8745 C24.1307,14.8728 21.2661,17.7227 21.2495,21.2495 C21.2368,22.5728 21.6497,23.865 22.4273,24.9358 C22.2613,25.1018 22.0123,25.3425 21.6802,25.658 C21.3483,25.9736 21.0578,26.2502 20.8087,26.488 C20.7097,26.5828 20.5857,26.7004 20.4369,26.8413 L20.0232,27.2322 L19.5884,27.6418 C19.035,28.1841 18.3377,28.8926 17.4966,29.7668 C16.6555,30.6411 16.1326,31.1946 15.9278,31.4268 C15.723,31.6592 15.499,31.9248 15.2555,32.2236 C15.0475,32.4404 14.9188,32.7212 14.8903,33.0203 C14.8903,33.2778 15.0061,33.5217 15.2056,33.6843 C15.3774,33.8721 15.6157,33.9851 15.8697,33.9998 C16.0911,33.9998 16.4673,33.7839 16.9985,33.3523 C17.5408,32.9097 18.5092,31.991 19.9037,30.5964 L21.3147,29.1855 C21.4254,29.075 21.7961,28.6877 22.427,28.0237 C22.746,27.688 23.0098,27.4119 23.2184,27.1948 C23.4224,26.9827 23.5737,26.8274 23.6722,26.729 L23.9556,26.4456 C25.0071,27.2314 26.3186,27.6243 27.8901,27.6243 C29.4617,27.6243 30.8727,26.9993 32.1233,25.7495 C33.3478,24.5623 34.0268,22.9216 33.9992,21.2163 C33.9644,17.7283 31.1454,14.9094 27.6575,14.8745 Z" stroke="none" stroke-width="1" fill-rule="evenodd"></path>
</svg>

<svg xmlns="http://www.w3.org/2000/svg" viewBox="0 0 34 34"><path d="M19.424 23.375a9.504 9.504 0 0 1-.3-2.125H6.375V6.375h21.25v6.375a7.937 7.937 0 0 1 2.125.299V4.25H25.5V0H0v19.125h4.266v4.25h15.158zM4.267 17V4.25h19.108V2.125H2.125V17h2.142zm8.483 2.124v-9.28h2.141v9.28H12.75zm4.25 0v-7.32h2.125v7.32H17zm-8.5-5.81v5.81h2.125v-5.81H8.5zm17.464 11.837a4.127 4.127 0 0 0 3.32 0 4.329 4.329 0 0 0 2.259-2.258 4.1 4.1 0 0 0 0-3.303 4.245 4.245 0 0 0-2.275-2.258A3.908 3.908 0 0 0 27.633 17a4.137 4.137 0 0 0-1.668.332 4.33 4.33 0 0 0-2.241 2.274 4.05 4.05 0 0 0 0 3.287 4.262 4.262 0 0 0 2.24 2.258zm1.694-10.277a6.405 6.405 0 0 0-6.409 6.376 6.173 6.173 0 0 0 1.178 3.686 44.07 44.07 0 0 1-.747.722 627.529 627.529 0 0 0-1.243 1.183l-.414.391-.435.41c-.553.542-1.25 1.25-2.091 2.125a74.025 74.025 0 0 0-1.57 1.66c-.204.232-.428.498-.671.797a1.334 1.334 0 0 0-.366.796c0 .258.116.502.316.664.171.188.41.301.664.316.221 0 .597-.216 1.129-.648.542-.442 1.51-1.361 2.905-2.756l1.41-1.41c.111-.111.482-.498 1.113-1.162l.791-.83c.204-.211.356-.367.454-.465l.284-.283c1.051.785 2.363 1.178 3.934 1.178 1.572 0 2.983-.625 4.233-1.874A6.175 6.175 0 0 0 34 21.216a6.406 6.406 0 0 0-6.342-6.342z" fill-rule="evenodd"/></svg>
